X:1

T:Whoop, do me no harm, good man

L:1/8

M:3/4

S:Chappell - Popular Music of the Olden Times  (1859)

Z:AK/Fiddler's Companion

K:D

D2|F3G A2|A3G A2|B3A G2|G3F E2|F3G A2|A4 ^G2|(A6|A4)||D2|

F3G A2|A3B =c2|B3A G2|E6|d6|D3E E2|E3D E2|D6||

                       

WHOOP 'EM UP CINDY. AKA and see "Cindy [1]." Old‑Time, Song Tune and Breakdown. Marimac 9008, The Lazy Aces String Band ‑ "Still Lazy After All These Years" (1986. Learned from Uncle Dave Macon via the New Lost City Ramblers).

                       

WHORE'S MARCH, THE. English, Jig. England, Northumberland. G Major. Standard tuning. AABB. Seattle (William Vickers), 1987, Part 3; No. 547.

                       

WHO'S BEEN HERE SINCE I'VE BEEN GONE. Old‑Time, Breakdown. Gerry Milnes relates a story attached to the tune in which a man returns home after having been away for a year in the army, only to find a newborn baby in a cradle (some version have him sneaking in while his wife is out hanging the wash). His reaction: to take the fiddle down off the wall and play “Who’s Been Here Since I’ve Been Gone.” Some versions of the story give that his second surprise is that the fiddle is in a different tuning than the one he plays in. Jeff Titon (2001) notes that “Who’s been here since I’ve been gone” is a “floating lyric sung by a cuckold that also turns up in African American tradition” and gives Howlin’ Wolfe’s song “Smokestack Lightning” as a example. Solomon Northrup discussed slave fiddling in his book 12 Years a Slave and printed the “Who’s been here…” lyric. See note for “Ways of the World [2].” See also the related “Pretty Little Girl with the Blue Dress On” and “Gate to Go Through.” Gennett 6828 (78 RPM), Doc Roberts (Ky.). Shanachie Records 6040, Gerry Milnes & Lorriane Lee Hammond – “Hell Up Coal Holler” (1999. “Old Mose Coffman played this one”).

           

WHO'S KEEPING TALLY. Old‑Time. The title appears in a list of traditional Ozark Mountain fiddle tunes compiled by musicologist/folklorist Vance Randolph, published in 1954.

 

WHOSE BLACK BABY ARE YOU? See “Goodbye Liza Jane [3].”

 

WHURRY WHIGS AWA’ MAN!  Scottish, Air.  The tune was played by a Highland piper in the army of Montrose during his defeat at Philiphaugh in September, 1645.  In typical brave Highland fashion, the piper placed himself on a small mound near the river Ettrick and proceeded to play to rally his fellow soldiers until a bullet from the opposing side cut him down. He fell mortally wounded into the river and drowned, and ever after the spot has been known as Piper’s Pool. The song can be found in James Hogg’s Jacobite Relics (vol. 2, pg. 63).

                       

WHY ARE MINE EYES STILL FLOWING. English, Air. The air was published by John Gay in his The Beggar's Opera (1729), and also appears in D’Urfey’s Pills to Purge Melancholy, vol. II, (1719). Raven (English Country Dance Tunes), 1984; pg. 69.

                       

WHY CAN’T A WHITE MAN DANCE LIKE A…CAN? American, Breakdown. USA, Texas. A variant of “Natchez Under the Hill [1],” from the playing of Orville Burns and Ace Sewell.

                       

WHY DID YOU PROMISE TO MARRY. English, Slip Jig. England, Northumberland. D Major. Standard tuning. AABBCC. See also the related “Astrope wells the new way” and “Merry Making [2].” Seattle (William Vickers), 1987, Part 2; No. 238. Front Hall FHR‑08, Alistair Anderson ‑ "Traditional Tunes" (1976).

